!!!OTL: NACH N N MARSCHIEREN
!!!ARE: Europa, Mitteleuropa, Deutschland, Hessen, Darmstadt; Lahn - Kreis;
!!    Dill - Kreis
!!!SCT: E1363
!!!YEM: Copyright 1995, estate of Helmut Schaffrath.
**kern
*ICvox
*Ivox
*M3/4
*k[b-]
*F:
{4c
=1
4f
4f
4g
=2
4a
4a}
{8f
8g
=3
4a
4a
4b-
=4
4dd
4cc}
{8f
8a
=5
4cc
4cc
8cc
8ff
=6
2dd}
{8cc
8b-
=7
4a
4cc
8b-
8g
=8
4f
4r}
{8g
8a
=9
8.b-
16dd
8dd
8dd
8dd
8dd
=10
4dd
4r}
{8cc
8b-
=11
8.a
16b-
8cc
8cc
8cc
8cc
=12
4cc
4r}
{8f
8a
=13
4cc
4cc
8cc
8ff
=14
4dd
4r}
{8cc
8b-
=15
4a
4cc
8b-
8g
=16
4f
4r}
==
!!!AGN: Staende -, Soldaten -, Kriegs - Lied
!!!ONB: ESAC (Essen Associative Code) Database: ERK3
!!!AMT: simple triple
!!!AIN: vox
!!!EED: Helmut Schaffrath
!!!EEV: 1.0
*-
